build/img/welcome.svg

<svg width="189" height="45" fill="none" xmlns="http://www.w3.org/2000/svg"><path d="M28.2 0h7.7l-1.2 44.9H20.2l-2-18.5-2 18.5H1.6L.5 0h7.6l.6 37.2h.8L14.4 0H22l4.9 37.2h.8L28.2 0zM60 37.2V45H39.1V0H60v7.7H46.7v10.8h10.6v7.7H46.7v10.9H60v.1zm21.4 0V45H63.1V0h7.6v37.2h10.7zm16.2-8.8l7.7-1.8v13.6c0 2.6-2.2 4.7-4.7 4.7H89.1c-2.6 0-4.7-2.2-4.7-4.7V4.7c0-2.6 2.1-4.7 4.7-4.7h11.5c2.5 0 4.7 2.1 4.7 4.7v9.1l-7.7 1.8v-8h-5.5v29.5h5.5v-8.7zM126.1 0c2.5 0 4.7 2.1 4.7 4.7v35.4c0 2.6-2.2 4.7-4.7 4.7h-11.5c-2.6 0-4.7-2.2-4.7-4.7V4.7c0-2.6 2.1-4.7 4.7-4.7h11.5zm-3 7.7h-5.5v29.5h5.5V7.7zM156.2 0h7.6v44.9h-7.6V22.8l-3.1 11.4h-7.5l-3-11.4v22.1H135V0h7.6l6.8 21.7L156.2 0zm31.9 37.2V45h-20.9V0h20.9v7.7h-13.3v10.8h10.6v7.7h-10.6v10.9h13.3v.1z" fill="#81B3D3"/></svg>

<svg width="189" height="45" viewBox="0 0 189 45" fill="none" xmlns="http://www.w3.org/2000/svg">
<path d="M28.2 0H35.9L34.7 44.9H20.2L18.2 26.4L16.2 44.9H1.60001L0.5 0H8.10001L8.7 37.2H9.5L14.4 0H22L26.9 37.2H27.7L28.2 0Z" fill="#81B3D3"/>
<path d="M60 37.2V45H39.1V0H60V7.7H46.7V18.5H57.3V26.2H46.7V37.1H60V37.2Z" fill="#81B3D3"/>
<path d="M81.4 37.2V45H63.1V0H70.7V37.2H81.4Z" fill="#81B3D3"/>
<path d="M97.6 28.4L105.3 26.6V40.2C105.3 42.8 103.1 44.9 100.6 44.9H89.1C86.5 44.9 84.4 42.7 84.4 40.2V4.7C84.4 2.1 86.5 0 89.1 0H100.6C103.1 0 105.3 2.1 105.3 4.7V13.8L97.6 15.6V7.6H92.1V37.1H97.6V28.4Z" fill="#81B3D3"/>
<path d="M126.1 0C128.6 0 130.8 2.1 130.8 4.7V40.1C130.8 42.7 128.6 44.8 126.1 44.8H114.6C112 44.8 109.9 42.6 109.9 40.1V4.7C109.9 2.1 112 0 114.6 0H126.1ZM123.1 7.7H117.6V37.2H123.1V7.7Z" fill="#81B3D3"/>
<path d="M156.2 0H163.8V44.9H156.2V22.8L153.1 34.2H145.6L142.6 22.8V44.9H135V0H142.6L149.4 21.7L156.2 0Z" fill="#81B3D3"/>
<path d="M188.1 37.2V45H167.2V0H188.1V7.7H174.8V18.5H185.4V26.2H174.8V37.1H188.1V37.2Z" fill="#81B3D3"/>
</svg>
